icons/glyphs/glyph-ms-onenote.svg

<?xml version="1.0" encoding="UTF-8" standalone="no"?><svg height="16" viewBox="0 0 4.2333333 4.2333333" width="16" xmlns="http://www.w3.org/2000/svg"><sodipodi:namedview/><metadata><rdf:RDF><cc:Work><dc:format>image/svg+xml</dc:format><dc:type/><dc:title/></cc:Work></rdf:RDF></metadata><path d="m8.5585938 0c-2.852179.50797304-5.70669.99358844-8.5585938 1.4921875 0 4.3386588-.00192416 8.6790855 0 13.0195315 2.83717.496813 5.6782577.971072 8.5097656 1.488281h1.1621094v-1.488281c1.862264 0 3.344465-.002412 5.207031.005859.316135-.014853.669828.007958.941406-.185547.217701-.332957.160446-.74916.179688-1.125-.027477-3.6651267.012103-7.3309386-.019531-10.9960935.038978-.4241904-.292605-.7557716-.716797-.7128906-1.988927-.0302362-3.601083.0012264-5.591797-.0097657v-1.4882812zm1.0917968 2.2109375h5.2109374c.21642 0 .390625.1742066.390625.390625v10.6718755c0 .216419-.174207.390624-.390625.390624h-5.2109374v-1.363281h4.3242184v-1.101562h-4.3242184v-1.4296878h4.3242184v-1.0996093h-4.3242184v-1.4296875h4.3242184v-1.1015625h-4.3242184v-1.4277344h4.3242184v-1.1015625h-4.3242184zm-4.2558594 2.3789063v6.4179682l-1.1796874-.121093v-4.4433596c-.4307664.4027948-.7103102.7015255-1.2949219.8945312v-.84375c.6988903-.4559818 1.1097206-1.0687624 1.5175781-1.7832031z" fill="#d0d0d0" stroke-width=".148838" transform="scale(.26458333)"/></svg>

<?xml version="1.0" encoding="UTF-8" standalone="no"?>
<!-- Created with Inkscape (http://www.inkscape.org/) -->

<svg
     xmlns:dc="http://purl.org/dc/elements/1.1/"
     xmlns:cc="http://creativecommons.org/ns#"
     xmlns:rdf="http://www.w3.org/1999/02/22-rdf-syntax-ns#"
     xmlns:svg="http://www.w3.org/2000/svg"
     xmlns="http://www.w3.org/2000/svg"
     xmlns:sodipodi="http://sodipodi.sourceforge.net/DTD/sodipodi-0.dtd"
     xmlns:inkscape="http://www.inkscape.org/namespaces/inkscape"
     width="16"
     height="16"
     viewBox="0 0 4.2333333 4.2333333"
     version="1.1"
     id="svg8"
     inkscape:version="0.92+devel (fa9b7f7a5b, 2017-07-19, custom)"
     sodipodi:docname="glyph-ms-onenote.svg">
    <defs
         id="defs2" />
    <sodipodi:namedview
         id="base"
         pagecolor="#002466"
         bordercolor="#ffffff"
         borderopacity="0.38039216"
         inkscape:pageopacity="1"
         inkscape:pageshadow="2"
         inkscape:zoom="27.320051"
         inkscape:cx="3.34071"
         inkscape:cy="9.4389656"
         inkscape:document-units="px"
         inkscape:current-layer="svg8"
         inkscape:document-rotation="0"
         showgrid="false"
         inkscape:showpageshadow="false"
         borderlayer="true"
         inkscape:window-width="1920"
         inkscape:window-height="1051"
         inkscape:window-x="0"
         inkscape:window-y="0"
         inkscape:window-maximized="1"
         units="px"
         inkscape:object-paths="true" />
    <metadata
         id="metadata5">
        <rdf:RDF>
            <cc:Work
                 rdf:about="">
                <dc:format>image/svg+xml</dc:format>
                <dc:type
                     rdf:resource="http://purl.org/dc/dcmitype/StillImage" />
                <dc:title></dc:title>
            </cc:Work>
        </rdf:RDF>
    </metadata>
    <path
         style="fill:#d0d0d0;stroke-width:0.14883845"
         d="M 8.5585938 0 C 5.7064148 0.50797304 2.8519038 0.99358844 0 1.4921875 C 0 5.8308463 -0.0019241575 10.171273 0 14.511719 C 2.83717 15.008532 5.6782577 15.482791 8.5097656 16 L 9.671875 16 L 9.671875 14.511719 C 11.534139 14.511719 13.01634 14.509307 14.878906 14.517578 C 15.195041 14.502725 15.548734 14.525536 15.820312 14.332031 C 16.038013 13.999074 15.980758 13.582871 16 13.207031 C 15.972523 9.5419043 16.012103 5.8760924 15.980469 2.2109375 C 16.019447 1.7867471 15.687864 1.4551659 15.263672 1.4980469 C 13.274745 1.4678107 11.662589 1.4992733 9.671875 1.4882812 L 9.671875 0 L 8.5585938 0 z M 9.6503906 2.2109375 L 14.861328 2.2109375 C 15.077748 2.2109375 15.251953 2.3851441 15.251953 2.6015625 L 15.251953 13.273438 C 15.251953 13.489857 15.077746 13.664062 14.861328 13.664062 L 9.6503906 13.664062 L 9.6503906 12.300781 L 13.974609 12.300781 L 13.974609 11.199219 L 9.6503906 11.199219 L 9.6503906 9.7695312 L 13.974609 9.7695312 L 13.974609 8.6699219 L 9.6503906 8.6699219 L 9.6503906 7.2402344 L 13.974609 7.2402344 L 13.974609 6.1386719 L 9.6503906 6.1386719 L 9.6503906 4.7109375 L 13.974609 4.7109375 L 13.974609 3.609375 L 9.6503906 3.609375 L 9.6503906 2.2109375 z M 5.3945312 4.5898438 L 5.3945312 11.007812 L 4.2148438 10.886719 L 4.2148438 6.4433594 C 3.7840774 6.8461542 3.5045336 7.1448849 2.9199219 7.3378906 L 2.9199219 6.4941406 C 3.6188122 6.0381588 4.0296425 5.4253782 4.4375 4.7109375 L 5.3945312 4.5898438 z "
         transform="scale(0.26458333)"
         id="path2" />
    <g
         aria-label="1"
         style="font-size:2.00394416px;font-family:'Arial Black';-inkscape-font-specification:'Arial Black, ';fill:#008000;stroke-width:0.26458332"
         id="text833" />
</svg>
